source/svgs/bowtie/uEA47-auto-fill-template.svg

<svg xmlns="http://www.w3.org/2000/svg" viewBox="0 0 448 448" enable-background="new 0 0 448 448"><path d="M448 416h-448v-160h448v160zm-416-32h384v-96h-384v96zm416-160h-448v-160h448v160zm-416-32h384v-96h-384v96zm256-64h-224v32h224v-32zm-128 192h-96v32h96v-32z"/></svg>

<svg xmlns="http://www.w3.org/2000/svg" viewBox="0 0 448 448"><path d="M448 416H0V256h448v160zM32 384h384v-96H32v96zm416-160H0V64h448v160zM32 192h384V96H32v96zm256-64H64v32h224v-32zM160 320H64v32h96v-32z"/></svg>
